X:8989
T:La Molinera (Arrg.)
C:Tradicional
S:Música Tradicional Asturiana, (C) Tello & Tito. Asturies, 2001.
S:http://pagina.de/MusTradAst <telloytito@asturies.org>
O:Grau
A:Asturies
D:Llan de Cubel - IV
G:Arrg.
Z:Tello
M:2/4
L:1/8
Q:1/4=120
K:Bm
|:"Bm"f2 f2|"A"efed|"F#m"c2 c2| 
"D"f2 f2|"A"cedc|"Bm"B2 B2| 
"A"e2 e2|"F#m"cdcB|"A"cBAB| 
"F#m"c2 cB|"A"ABAG|"Bm"F2 F2 :| 
|:"Em"B2 e2|"A"edcB|"F#m"cBA2| 
"D"defg|"Bm"fedc|"D"d4| 
"Bm"a2 fe|"D"d2 ef|"A"e2 c2| 
"Bm"d2 cB|"F#m"c2 BA|"Bm"B2 B2 :|| 


